X: 1
T:The Whistlebinkies  "CYMRU"
M:9/8
L:1/8
Q:80
C:Stuart A. Finlayson, NZ.
S:Jig
K:HP
| {g}Be{A}e{g}e2f{gf}g3|
{a}Be{A}e{g}e2fg{a}fg|
{a}Ad{G}d{g}d2e{gfg}f3|  !
{g}Ad{G}d{g}d2ef{g}ef| |
{g}Be{A}e{g}e2f{gf}g3|
{a}Be{A}e{g}e2fg{a}fg|  !
{a}ga{g}agfe{gfg}f2A|
{g}Be{A}e{g}efg{fg}fe{A}e|] |:
{gf}g2e{g}fed{gef}e2A|  !
g{a}fg{a}fed{g}Ad{G}d|
{gf}g2e{g}fed{gef}e2A|
{g}Be{A}e{g}efg{fg}fe{A}e:| |:  !
{g}dB{G}B{g}B{d}G{e}G{g}A2{d}B|
g{a}fgafd{gef}e2f|
{g}dB{G}B{g}B{d}G{e}G{g}A2{d}B|  !
{g}Be{A}e{g}efg{fg}fe{A}e:| |:
g{a}fgafd{gef}e2A|
g{a}fg{a}fed{g}eB{G}B|  !
g{a}fgafd{gef}e2A|
{g}Be{A}e{g}efg{fg}fe{A}e:|
